assets/close.svg

<svg height="18" viewBox="0 0 18 18" width="18" xmlns="http://www.w3.org/2000/svg"><path d="m4.61289944 3.20970461.09420734.08318861 7.29289322 7.29210678 7.2928932-7.29210678c.3905243-.39052429 1.0236893-.39052429 1.4142136 0 .3604839.36048396.3882135.92771502.0831886 1.32000622l-.0831886.09420734-7.2921068 7.29289322 7.2921068 7.2928932c.3905243.3905243.3905243 1.0236893 0 1.4142136-.360484.3604839-.927715.3882135-1.3200062.0831886l-.0942074-.0831886-7.2928932-7.2921068-7.29289322 7.2921068c-.39052429.3905243-1.02368927.3905243-1.41421356 0-.36048396-.360484-.3882135-.927715-.08318861-1.3200062l.08318861-.0942074 7.29210678-7.2928932-7.29210678-7.29289322c-.39052429-.39052429-.39052429-1.02368927 0-1.41421356.33044363-.33044363.83461225-.38128111 1.21850973-.15251245z" fill="#16182a" transform="translate(-3 -3)"/></svg>

<svg width="24" height="24" viewBox="0 0 24 24" fill="none" xmlns="http://www.w3.org/2000/svg">
<path fill-rule="evenodd" clip-rule="evenodd" d="M4.6129 3.2097L4.70711 3.29289L12 10.585L19.2929 3.29289C19.6834 2.90237 20.3166 2.90237 20.7071 3.29289C21.0676 3.65338 21.0953 4.22061 20.7903 4.6129L20.7071 4.70711L13.415 12L20.7071 19.2929C21.0976 19.6834 21.0976 20.3166 20.7071 20.7071C20.3466 21.0676 19.7794 21.0953 19.3871 20.7903L19.2929 20.7071L12 13.415L4.70711 20.7071C4.31658 21.0976 3.68342 21.0976 3.29289 20.7071C2.93241 20.3466 2.90468 19.7794 3.2097 19.3871L3.29289 19.2929L10.585 12L3.29289 4.70711C2.90237 4.31658 2.90237 3.68342 3.29289 3.29289C3.62334 2.96245 4.12751 2.91161 4.5114 3.14038L4.6129 3.2097Z" fill="#16182A"/>
</svg>
